X:154 
T:Molly Bawn* (reel) 
B:CRE3.123 (gan ainm)
F:file ID: cre.3/154molly_b
R:reel
L:1/8
Q:180
M:C
K:D
"A modal"
A2EA (3cde ed|BGG2 eGdG|EA (3cde a2ed|(3cde dB BAAG|
A2EA (3cde ed|BGG2 eGdG|EA (3cde a2ed|(3cde dB BAA2||
a2ea a2ba|agef g2gb|a2ea a2ba|gedB BAA2|
a2ea a2ba|a2ef g3a|b2ba gbaf|gedB eBdB||

%%%

